( Program generated from :/home/invite/Desktop/bazar/PFE/camnest/build/build/04-6.nc )
( program start )
( Units = millimeters )
N0 G21  ( Absolute coordinates )
N10  G90  (  feed per minute mode  )
N20 G94  ( Homing )
( *******Starting the G-code of part 04-6.****** )
( Adding a Loop )
( Going to lead-in point )
( Going to Z home )
N30 G00  X 124.401540 Y 273.204844 
N40 G01  X 128.500000 Y 277.505997 
N50 G02  X 128.500000 Y 277.505997 I -3.500000 J -3.500000 
( Adding a Loop )
( Going to lead-in point )
( Going to Z home )
N60 G00  X 214.401540 Y 273.204844 
N70 G01  X 218.500000 Y 277.505997 
N80 G02  X 218.500000 Y 277.505997 I -3.500000 J -3.500000 
( Adding a Loop )
( Going to lead-in point )
( Going to Z home )
N90 G00  X -0.984601 Y 188.990473 
N100 G01  X 20.000000 Y 212.001999 
N110 G02  X 20.000000 Y 212.001999 I -15.000000 J -15.000000 
( Adding a Loop )
( Going to lead-in point )
( Going to Z home )
N120 G00  X 209.015399 Y 199.990473 
N130 G01  X 240.000000 Y 233.001999 
N140 G02  X 240.000000 Y 233.001999 I -25.000000 J -25.000000 
( Adding a Loop )
( Going to lead-in point )
( Going to Z home )
N150 G00  X 279.015399 Y 199.990473 
N160 G01  X 310.000000 Y 233.001999 
N170 G02  X 310.000000 Y 233.001999 I -25.000000 J -25.000000 
( Adding a Loop )
( Going to lead-in point )
( Going to Z home )
N180 G00  X -70.984601 Y 179.990473 
N190 G01  X -50.000000 Y 203.001999 
N200 G02  X -50.000000 Y 203.001999 I -15.000000 J -15.000000 
( Adding a Loop )
( Going to lead-in point )
( Going to Z home )
N210 G00  X 69.015399 Y 196.990473 
N220 G01  X 90.000000 Y 220.001999 
N230 G02  X 90.000000 Y 220.001999 I -15.000000 J -15.000000 
( Adding a Loop )
( Going to lead-in point )
( Going to Z home )
N240 G00  X 214.401540 Y 25.192851 
N250 G01  X 218.500000 Y 29.494003 
N260 G02  X 218.500000 Y 29.494003 I -3.500000 J -3.500000 
( Adding a Loop )
( Going to lead-in point )
( Going to Z home )
N270 G00  X 124.401540 Y 25.192851 
N280 G01  X 128.500000 Y 29.494003 
N290 G02  X 128.500000 Y 29.494003 I -3.500000 J -3.500000 
( Adding a Loop )
( Going to lead-in point )
( Going to Z home )
N300 G00  X -0.984601 Y 95.986475 
N310 G01  X 20.000000 Y 118.998001 
N320 G02  X 20.000000 Y 118.998001 I -15.000000 J -15.000000 
( Adding a Loop )
( Going to lead-in point )
( Going to Z home )
N330 G00  X 139.015399 Y 83.986475 
N340 G01  X 170.000000 Y 116.998001 
N350 G02  X 170.000000 Y 116.998001 I -25.000000 J -25.000000 
( Adding a Loop )
( Going to lead-in point )
( Going to Z home )
N360 G00  X 279.015399 Y 83.986475 
N370 G01  X 310.000000 Y 116.998001 
N380 G02  X 310.000000 Y 116.998001 I -25.000000 J -25.000000 
( Adding a Loop )
( Going to lead-in point )
( Going to Z home )
N390 G00  X 209.015399 Y 83.986475 
N400 G01  X 240.000000 Y 116.998001 
N410 G02  X 240.000000 Y 116.998001 I -25.000000 J -25.000000 
( Adding a Loop )
( Going to lead-in point )
( Going to Z home )
N420 G00  X 69.015399 Y 86.986475 
N430 G01  X 90.000000 Y 109.998001 
N440 G02  X 90.000000 Y 109.998001 I -15.000000 J -15.000000 
( Adding a Loop )
( Going to lead-in point )
( Going to Z home )
N450 G00  X -70.984601 Y 104.986475 
N460 G01  X -50.000000 Y 127.998001 
N470 G02  X -50.000000 Y 127.998001 I -15.000000 J -15.000000 
( Adding a Loop )
( Going to lead-in point )
( Going to Z home )
N480 G00  X 139.015399 Y 199.990473 
N490 G01  X 170.000000 Y 233.001999 
N500 G02  X 170.000000 Y 233.001999 I -25.000000 J -25.000000 
( Adding a Loop )
( Going to lead-in point )
( Going to Z home )
N510 G00  X 130.000000 Y 150.000000 
N520 G00  X 111.000000 Y 17.994003 
N530 G01  X 375.000000 
N540 G01  Y 282.005997 
N550 G01  X 111.000000 
N560 G01  X 95.001500 Y 266.007497 
N570 G01  X 95.000000 Y 266.001999 
N580 G01  X -115.000000 Y 216.001999 
N590 G01  Y 83.998001 
N600 G01  X 95.000000 Y 33.998001 
N610 G01  X 95.001500 Y 33.992503 
N620 G01  X 111.000000 Y 17.994003 
( program End )
N630 M2  